build/Karasa-Jaga/scalable/actions/appointment-new-symbolic.svg

<svg height="16" width="16" xmlns="http://www.w3.org/2000/svg"><g fill="#bebebe"><path d="m6.41 6a.50005.50005 0 0 0 -.41.5v2.5h-1.5a.50005.50005 0 1 0 0 1h2a.50005.50005 0 0 0 .5-.5v-3a.50005.50005 0 0 0 -.59375-.5z"/><path d="m6.5 3.5644531c-3.2703486 0-5.93554688 2.6651983-5.93554688 5.9355469 0 3.270349 2.66519828 5.935547 5.93554688 5.935547s5.935547-2.665198 5.935547-5.935547c0-.2934398-.054869-.5811982-.105469-.8691406-.227363-.0085343-.452273-.0257269-.669922-.0664063h-.269531c.06698.3085623.173828.5957635.173828.9355469 0 2.799264-2.2651893 5.064453-5.064453 5.064453s-5.0644531-2.265189-5.0644531-5.064453c0-2.7992637 2.2651894-5.0644531 5.0644531-5.0644531.5346931 0 1.0294424.1240274 1.5078125.2871093-.0289254-.2074413-.0625-.4134982-.0625-.6289062 0-.0943238.0216917-.1824886.0273437-.2753906-.4713389-.1406556-.9543148-.2539063-1.4726562-.2539063z"/><path d="m12.5 7.5937497c-1.933 0-3.5-1.5669997-3.5-3.4999997s1.567-3.5 3.5-3.5 3.5 1.567 3.5 3.5-1.567 3.4999997-3.5 3.4999997zm-.5-.9999997h1v-2h2v-1h-2v-2h-1v2h-2v1h2z" fill-rule="evenodd"/></g></svg>

<?xml version="1.0" encoding="UTF-8" standalone="no"?>
<!-- Created with Inkscape (http://www.inkscape.org/) -->

<svg
   xmlns:dc="http://purl.org/dc/elements/1.1/"
   xmlns:cc="http://creativecommons.org/ns#"
   xmlns:rdf="http://www.w3.org/1999/02/22-rdf-syntax-ns#"
   xmlns:svg="http://www.w3.org/2000/svg"
   xmlns="http://www.w3.org/2000/svg"
   xmlns:sodipodi="http://sodipodi.sourceforge.net/DTD/sodipodi-0.dtd"
   xmlns:inkscape="http://www.inkscape.org/namespaces/inkscape"
   id="svg7384"
   height="16"
   width="16"
   version="1.1"
   sodipodi:docname="appointment-new-symbolic.svg"
   inkscape:version="0.92.2 (unknown)">
  <defs
     id="defs11" />
  <sodipodi:namedview
     pagecolor="#ffffff"
     bordercolor="#666666"
     borderopacity="1"
     objecttolerance="10"
     gridtolerance="10"
     guidetolerance="10"
     inkscape:pageopacity="0"
     inkscape:pageshadow="2"
     inkscape:window-width="1317"
     inkscape:window-height="716"
     id="namedview9"
     showgrid="false"
     inkscape:snap-global="false"
     inkscape:zoom="14.75"
     inkscape:cx="6.9517572"
     inkscape:cy="9.1037591"
     inkscape:window-x="49"
     inkscape:window-y="27"
     inkscape:window-maximized="1"
     inkscape:current-layer="svg7384" />
  <metadata
     id="metadata90">
    <rdf:RDF>
      <cc:Work
         rdf:about="">
        <dc:format>image/svg+xml</dc:format>
        <dc:type
           rdf:resource="http://purl.org/dc/dcmitype/StillImage" />
        <dc:title>Gnome Symbolic Icon Theme</dc:title>
      </cc:Work>
    </rdf:RDF>
  </metadata>
  <title
     id="title9167">Gnome Symbolic Icon Theme</title>
  <g
     id="g1470">
    <path
       id="path26788"
       style="color:#000000;text-indent:0;text-transform:none;fill:#bebebe"
       d="M 6.41,6 A 0.50005,0.50005 0 0 0 6,6.5 V 9 H 4.5 a 0.50005,0.50005 0 1 0 0,1 h 2 A 0.50005,0.50005 0 0 0 7,9.5 v -3 A 0.50005,0.50005 0 0 0 6.40625,6 Z"
       inkscape:connector-curvature="0" />
    <path
       id="path26792"
       d="M 6.5 3.5644531 C 3.2296514 3.5644531 0.56445312 6.2296514 0.56445312 9.5 C 0.56445312 12.770349 3.2296514 15.435547 6.5 15.435547 C 9.7703486 15.435547 12.435547 12.770349 12.435547 9.5 C 12.435547 9.2065602 12.380678 8.9188018 12.330078 8.6308594 C 12.102715 8.6223251 11.877805 8.6051325 11.660156 8.5644531 L 11.390625 8.5644531 C 11.457605 8.8730154 11.564453 9.1602166 11.564453 9.5 C 11.564453 12.299264 9.2992637 14.564453 6.5 14.564453 C 3.7007363 14.564453 1.4355469 12.299264 1.4355469 9.5 C 1.4355469 6.7007363 3.7007363 4.4355469 6.5 4.4355469 C 7.0346931 4.4355469 7.5294424 4.5595743 8.0078125 4.7226562 C 7.9788871 4.5152149 7.9453125 4.309158 7.9453125 4.09375 C 7.9453125 3.9994262 7.9670042 3.9112614 7.9726562 3.8183594 C 7.5013173 3.6777038 7.0183414 3.5644531 6.5 3.5644531 z "
       style="color:#000000;text-indent:0;text-transform:none;fill:#bebebe" />
    <path
       inkscape:connector-curvature="0"
       d="M 12.5,7.5937497 C 10.567,7.5937497 9,6.02675 9,4.09375 c 0,-1.933 1.567,-3.5 3.5,-3.5 1.933,0 3.5,1.567 3.5,3.5 0,1.933 -1.567,3.4999997 -3.5,3.4999997 z M 12,6.59375 h 1 v -2 h 2 v -1 h -2 v -2 h -1 v 2 h -2 v 1 h 2 z"
       id="path6731"
       sodipodi:nodetypes="sssssccccccccccccc"
       style="color:#000000;clip-rule:nonzero;display:inline;overflow:visible;visibility:visible;opacity:1;isolation:auto;mix-blend-mode:normal;color-interpolation:sRGB;color-interpolation-filters:linearRGB;solid-color:#000000;solid-opacity:1;fill:#bebebe;fill-opacity:1;fill-rule:evenodd;stroke:none;stroke-width:1;stroke-linecap:butt;stroke-linejoin:miter;stroke-miterlimit:4;stroke-dasharray:none;stroke-dashoffset:0;stroke-opacity:1;color-rendering:auto;image-rendering:auto;shape-rendering:auto;text-rendering:auto;enable-background:accumulate" />
  </g>
</svg>
